dist/assets/img/sizeArrow.svg

<svg width="17" height="8" viewBox="0 0 17 8" fill="none" xmlns="http://www.w3.org/2000/svg">
<path d="M11 4.625C11.2761 4.625 11.5 4.40114 11.5 4.125C11.5 3.84886 11.2761 3.625 11 3.625V4.625ZM1 3.625C0.723858 3.625 0.5 3.84886 0.5 4.125C0.5 4.40114 0.723858 4.625 1 4.625V3.625ZM3.14803 7.60513C3.34416 7.79952 3.66074 7.7981 3.85513 7.60197C4.04952 7.40584 4.0481 7.08926 3.85197 6.89487L3.14803 7.60513ZM2.39814 6.15793L2.75012 5.80281L2.39814 6.15793ZM2.39814 2.09207L2.04617 1.73694L2.39814 2.09207ZM3.85197 1.35513C4.0481 1.16074 4.04952 0.844159 3.85513 0.648028C3.66074 0.451896 3.34416 0.450484 3.14803 0.644873L3.85197 1.35513ZM1.01243 4.32083L0.516444 4.38405L0.516444 4.38405L1.01243 4.32083ZM1.01243 3.92917L0.516444 3.86595L0.516444 3.86595L1.01243 3.92917ZM11 3.625H1V4.625H11V3.625ZM3.85197 6.89487L2.75012 5.80281L2.04617 6.51306L3.14803 7.60513L3.85197 6.89487ZM2.75012 2.4472L3.85197 1.35513L3.14803 0.644873L2.04617 1.73694L2.75012 2.4472ZM2.75012 5.80281C2.30241 5.35908 1.99718 5.05549 1.79099 4.79874C1.59113 4.54988 1.5258 4.39397 1.50842 4.25761L0.516444 4.38405C0.566713 4.77844 0.754884 5.10563 1.01129 5.42491C1.26137 5.7363 1.61517 6.08589 2.04617 6.51306L2.75012 5.80281ZM2.04617 1.73694C1.61517 2.16412 1.26137 2.5137 1.01129 2.82509C0.754885 3.14437 0.566713 3.47156 0.516444 3.86595L1.50842 3.99239C1.5258 3.85602 1.59113 3.70012 1.79099 3.45126C1.99718 3.19451 2.30241 2.89092 2.75012 2.4472L2.04617 1.73694ZM1.50842 4.25761C1.49719 4.16955 1.49719 4.08045 1.50842 3.99239L0.516444 3.86595C0.494519 4.03796 0.494519 4.21204 0.516444 4.38405L1.50842 4.25761Z" fill="#BDBDBD"/>
<path d="M6 3.625C5.72386 3.625 5.5 3.84886 5.5 4.125C5.5 4.40114 5.72386 4.625 6 4.625L6 3.625ZM16 4.625C16.2761 4.625 16.5 4.40114 16.5 4.125C16.5 3.84886 16.2761 3.625 16 3.625V4.625ZM13.852 0.644873C13.6558 0.450484 13.3393 0.451896 13.1449 0.648028C12.9505 0.844159 12.9519 1.16074 13.148 1.35513L13.852 0.644873ZM14.6019 2.09207L14.2499 2.44719L14.6019 2.09207ZM14.6019 6.15793L14.9538 6.51306L14.6019 6.15793ZM13.148 6.89487C12.9519 7.08926 12.9505 7.40584 13.1449 7.60197C13.3393 7.7981 13.6558 7.79952 13.852 7.60513L13.148 6.89487ZM15.9876 3.92917L16.4836 3.86595V3.86595L15.9876 3.92917ZM15.9876 4.32083L16.4836 4.38405V4.38405L15.9876 4.32083ZM6 4.625L16 4.625V3.625L6 3.625L6 4.625ZM13.148 1.35513L14.2499 2.44719L14.9538 1.73694L13.852 0.644873L13.148 1.35513ZM14.2499 5.8028L13.148 6.89487L13.852 7.60513L14.9538 6.51306L14.2499 5.8028ZM14.2499 2.44719C14.6976 2.89092 15.0028 3.19451 15.209 3.45126C15.4089 3.70012 15.4742 3.85602 15.4916 3.99239L16.4836 3.86595C16.4333 3.47156 16.2451 3.14437 15.9887 2.82509C15.7386 2.5137 15.3848 2.16411 14.9538 1.73694L14.2499 2.44719ZM14.9538 6.51306C15.3848 6.08588 15.7386 5.7363 15.9887 5.42491C16.2451 5.10563 16.4333 4.77844 16.4836 4.38405L15.4916 4.25761C15.4742 4.39397 15.4089 4.54988 15.209 4.79874C15.0028 5.05549 14.6976 5.35908 14.2499 5.8028L14.9538 6.51306ZM15.4916 3.99239C15.5028 4.08045 15.5028 4.16955 15.4916 4.25761L16.4836 4.38405C16.5055 4.21204 16.5055 4.03796 16.4836 3.86595L15.4916 3.99239Z" fill="#BDBDBD"/>
</svg>

<svg width="17" height="8" fill="none" xmlns="http://www.w3.org/2000/svg"><path d="M11 4.625a.5.5 0 0 0 0-1v1Zm-10-1a.5.5 0 0 0 0 1v-1Zm2.148 3.98a.5.5 0 0 0 .704-.71l-.704.71Zm-.75-1.447.352-.355-.352.355Zm0-4.066-.352-.355.352.355Zm1.454-.737a.5.5 0 0 0-.704-.71l.704.71Zm-2.84 2.966-.496.063.496-.063Zm0-.392-.496-.063.496.063ZM11 3.625H1v1h10v-1Zm-7.148 3.27L2.75 5.803l-.704.71 1.102 1.092.704-.71ZM2.75 2.447l1.102-1.092-.704-.71-1.102 1.092.704.71Zm0 3.356c-.448-.444-.753-.748-.959-1.004-.2-.25-.265-.405-.283-.541l-.992.126c.05.394.239.722.495 1.04.25.312.604.662 1.035 1.09l.704-.711Zm-.704-4.066c-.43.427-.785.777-1.035 1.088-.256.32-.444.647-.495 1.041l.992.126c.018-.136.083-.292.283-.54.206-.257.511-.561.96-1.005l-.705-.71Zm-.538 2.52a1.048 1.048 0 0 1 0-.265l-.992-.126a2.049 2.049 0 0 0 0 .518l.992-.126Z" fill="#BDBDBD"/><path d="M6 3.625a.5.5 0 0 0 0 1v-1Zm10 1a.5.5 0 0 0 0-1v1ZM13.852.645a.5.5 0 0 0-.704.71l.704-.71Zm.75 1.447-.352.355.352-.355Zm0 4.066.352.355-.352-.355Zm-1.454.737a.5.5 0 0 0 .704.71l-.704-.71Zm2.84-2.966.496-.063-.496.063Zm0 .392.496.063-.496-.063ZM6 4.625h10v-1H6v1Zm7.148-3.27 1.102 1.092.704-.71L13.852.645l-.704.71Zm1.102 4.448-1.102 1.092.704.71 1.102-1.092-.704-.71Zm0-3.356c.448.444.753.748.959 1.004.2.25.265.405.283.541l.992-.126c-.05-.394-.239-.722-.495-1.04-.25-.312-.604-.662-1.035-1.09l-.704.711Zm.704 4.066c.43-.427.785-.777 1.035-1.088.256-.32.444-.647.495-1.04l-.992-.127c-.018.136-.083.292-.283.54-.206.257-.511.561-.96 1.005l.705.71Zm.538-2.52c.01.087.01.177 0 .265l.992.126a2.051 2.051 0 0 0 0-.518l-.992.126Z" fill="#BDBDBD"/></svg>
